source/img/page-logotype-before.svg

<svg width="158" height="52" viewBox="0 0 158 52" fill="none" xmlns="http://www.w3.org/2000/svg">
<path d="M39.385 42.8044L39.2623 42.9267C38.4031 43.844 37.4211 44.272 36.5006 44.272L38.219 41.2757C39.3236 39.3801 38.2803 37.5456 36.5619 37.5456C35.1504 37.5456 34.0457 38.096 33.0024 39.9304L32.0819 41.5203L31.3454 42.8044L31.2227 42.9267C29.8725 44.4555 28.5837 45.6785 27.7859 45.6785C27.3563 45.6785 27.1722 45.3727 27.6018 44.7001L31.5295 37.8514H33.0024L33.5548 36.9953H32.0205L33.7389 33.999H31.8977L30.1793 36.9953H28.5223L27.97 37.8514H29.627L25.9447 44.2109C25.1469 45.5562 25.6993 46.8403 27.1722 46.8403C28.2155 46.8403 29.4429 46.0454 30.5476 44.9447C30.5476 47.2683 33.8002 47.7575 35.7641 45.2504H36.1937C37.2984 45.2504 39.0168 44.5778 39.9374 43.4771C39.9374 43.1713 39.6305 42.9267 39.385 42.8044ZM35.4573 42.9267H35.3959C34.7822 42.9267 34.2912 43.4159 34.2912 44.0274C34.2912 44.272 34.3526 44.4555 34.4753 44.6389V44.7001C33.6161 46.1677 31.5295 45.9231 32.5728 43.9663L33.9844 41.5815L34.8436 40.1139C36.1323 37.9125 37.9121 38.7686 36.8074 40.6642L35.4573 42.9267Z" fill="#766458"/>
<path d="M64.854 42.8042L64.7312 42.9265C63.3811 44.4552 61.7241 45.6782 60.4353 45.6782C59.3306 45.6782 58.6555 44.9444 59.4533 43.4768L59.6374 43.1711C60.8035 43.6603 63.0742 43.4157 64.4244 41.0309L64.6699 40.6028C65.6518 38.8907 64.7312 37.6677 63.197 37.6677C61.7241 37.6677 60.558 38.4626 59.7602 39.8079L57.9804 42.8654L57.8577 42.9877C56.5075 44.5164 55.2187 45.7394 54.4209 45.7394C53.9913 45.7394 53.8072 45.4336 54.2368 44.761L56.8757 40.1136C57.6736 38.7072 56.9371 37.7288 55.8938 37.7288C55.096 37.7288 54.2368 38.1569 53.3162 39.1353L56.262 34.0599H54.4209L49.3271 42.8042L49.2044 42.9265C47.8542 44.4552 46.5654 45.6782 45.7676 45.6782C45.338 45.6782 45.1539 45.3725 45.5835 44.6998L49.5112 37.8511H50.9841L51.5365 36.995H50.0022L51.7206 33.9987H49.8794L48.1611 36.995H46.504L45.9517 37.8511H47.6087L43.9265 44.2106C43.1286 45.5559 43.681 46.8401 45.1539 46.8401C45.8903 46.8401 46.6882 46.4732 47.486 45.8617L46.995 46.6566H48.8361L51.5978 41.8258C54.4209 38.2792 55.6483 38.7684 54.9119 40.1136L52.5184 44.2718C51.7206 45.6171 52.2729 46.9012 53.7458 46.9012C54.8505 46.9012 56.0779 46.0451 57.1826 44.9444C57.244 46.1063 58.2259 46.9012 59.6988 46.9012C61.7854 46.9012 63.872 45.3113 65.3449 43.538C65.4063 43.1711 65.0995 42.9265 64.854 42.8042ZM61.3558 40.2359C62.3991 38.4015 64.3016 38.7072 63.197 40.6028L62.9515 41.0309C62.0923 42.4985 60.8649 42.4985 60.1898 42.2539L61.3558 40.2359Z" fill="#766458"/>
<path d="M131.81 42.8044L131.687 42.9267C131.012 43.7217 130.214 44.3943 129.478 44.9446C130.091 43.1713 129.907 40.5419 131.073 38.1571L129.723 37.4233C128.987 38.4628 127.33 40.8476 125.611 42.8044L125.488 42.9267C124.138 44.4554 122.849 45.6784 122.052 45.6784C121.622 45.6784 121.438 45.3727 121.868 44.7L125.795 37.8513H123.954L120.701 43.5382C119.29 44.8223 118.247 45.495 117.878 45.3727C117.449 45.1892 117.878 44.5166 118.124 44.0886L121.683 37.8513H119.842L116.958 42.8044L116.835 42.9267C115.976 43.844 114.994 44.272 114.073 44.272L115.792 41.2757C116.896 39.3801 115.853 37.5456 114.135 37.5456C112.723 37.5456 111.619 38.0959 110.575 39.9304L109.655 41.5203L108.918 42.8044L108.796 42.9267C107.445 44.4554 105.788 45.6784 104.5 45.6784C103.395 45.6784 102.72 44.9446 103.518 43.4771L103.702 43.1713C104.868 43.6605 107.138 43.4159 108.489 41.0311L108.734 40.6031C109.716 38.8909 108.796 37.6679 107.261 37.6679C105.788 37.6679 104.622 38.4628 103.824 39.8081L102.045 42.8656L101.922 42.9879C100.388 44.7612 99.0989 45.8619 97.626 46.4734L101.738 39.4412H100.633C100.633 38.7074 99.8353 37.6679 98.7307 37.6679C97.7487 37.6679 96.3372 38.4628 95.6007 39.8081L93.821 42.8656L93.6982 42.9879C92.3481 44.5166 91.0593 45.7396 90.2615 45.7396C89.8319 45.7396 89.6477 45.4338 90.0773 44.7612L91.9185 41.5814C92.5322 40.4808 92.2253 39.8081 91.673 39.0743L90.6297 37.8513C90.3842 37.5456 90.3842 37.1175 90.7524 36.8118L89.7705 35.7723C88.7272 36.6895 88.6658 37.729 89.2795 38.5851L89.4636 38.7686C88.6658 39.9304 87.5611 41.4591 86.3337 42.8656L86.211 42.9879C85.3518 43.9051 84.3698 44.3332 83.4493 44.3332L85.1677 41.3368C86.2723 39.4412 85.229 37.6067 83.5106 37.6067C82.0991 37.6067 80.9944 38.1571 79.9511 39.9916L79.0306 41.5814L78.2941 42.8656L78.1714 42.9879C76.6371 44.7612 75.3483 45.8619 73.8754 46.4734L77.9872 39.4412H76.8826C76.8826 38.7074 76.0847 37.6679 74.9801 37.6679C73.9981 37.6679 72.5866 38.4628 71.8501 39.8081L69.2726 44.272C68.4747 45.6173 69.0271 46.9014 70.5 46.9014C70.9909 46.9014 71.6047 46.6568 72.2797 46.2899L71.7888 47.146C69.3339 47.8798 67.7383 48.9193 67.7383 50.2646C67.7383 52.038 70.4386 52.4048 71.7888 50.1423L73.2003 47.7575C74.6732 47.3295 76.0847 46.4122 77.619 45.0058C77.619 47.3295 80.8717 47.8187 82.8356 45.3115H83.2652C84.3698 45.3115 86.0882 44.6389 87.0088 43.5382C87.868 42.4987 88.6044 41.5814 90.0773 39.6247L90.3228 39.9304C90.5683 40.2362 90.6297 40.6031 90.4456 40.9699L88.4817 44.3332C87.6839 45.6784 88.2362 46.9626 89.7091 46.9626C90.6297 46.9626 91.673 46.3511 92.6549 45.495C92.6549 46.3511 93.2073 46.9626 94.2506 46.9626C94.7415 46.9626 95.3553 46.718 96.0303 46.3511L95.6007 47.0849C93.1459 47.8187 91.5502 48.8582 91.5502 50.2035C91.5502 51.9768 94.2506 52.3437 95.6007 50.0812L97.0123 47.6964C98.4852 47.2072 99.9581 46.3511 101.492 44.8835C101.554 46.0453 102.474 46.8403 104.009 46.8403C105.481 46.8403 107.016 45.9842 108.243 44.8835C108.182 47.2683 111.496 47.7575 113.46 45.2504H113.889C114.442 45.2504 115.239 45.0669 115.915 44.7C115.424 45.9842 115.853 46.8403 116.896 46.8403C117.878 46.8403 119.044 45.923 119.904 45.0669C119.72 46.0453 120.333 46.8403 121.499 46.8403C123.034 46.8403 124.752 45.2504 126.286 43.4771C127.33 42.2541 128.25 40.9699 128.925 40.1139C128.189 42.0095 128.618 45.4338 126.839 45.4338C126.225 45.4338 125.979 44.7612 125.979 44.7612L124.813 45.3727C124.813 45.3727 125.12 46.8403 126.839 46.8403C127.023 46.8403 127.145 46.8403 127.33 46.7791H127.391C129.293 46.5345 131.135 45.0669 132.485 43.4771C132.423 43.1713 132.117 42.8656 131.81 42.8044ZM105.481 40.2362C106.525 38.4017 108.427 38.7074 107.323 40.6031L107.077 41.0311C106.218 42.4987 104.991 42.4987 104.315 42.2541L105.481 40.2362ZM70.3772 49.7754C70.009 50.4481 69.3953 50.3869 69.3953 49.8366C69.3953 49.3474 69.8249 48.797 71.2364 48.2467L70.3772 49.7754ZM71.2364 45.6784C70.8068 45.6784 70.6227 45.3727 71.0523 44.7L73.6299 40.2362C74.6118 38.524 76.5757 38.952 75.6551 40.6031L74.2436 43.049C73.1389 44.8223 71.9729 45.6784 71.2364 45.6784ZM82.5287 42.9267H82.4673C81.8536 42.9267 81.3627 43.4159 81.3627 44.0274C81.3627 44.272 81.424 44.4555 81.5468 44.6389V44.7C80.6876 46.1676 78.601 45.923 79.6443 43.9663L81.0558 41.5814L81.915 40.1139C83.2038 37.9125 84.9835 38.7686 83.8789 40.6642L82.5287 42.9267ZM94.0665 49.7754C93.6982 50.4481 93.0845 50.3869 93.0845 49.8366C93.0845 49.3474 93.5141 48.797 94.9256 48.2467L94.0665 49.7754ZM94.9256 45.6784C94.4961 45.6784 94.3119 45.3727 94.7415 44.7L97.3191 40.2362C98.3011 38.524 100.265 38.952 99.3444 40.6031L97.9328 43.049C96.8281 44.8223 95.6621 45.6784 94.9256 45.6784ZM113.03 42.9267H112.969C112.355 42.9267 111.864 43.4159 111.864 44.0274C111.864 44.272 111.925 44.4555 112.048 44.6389V44.7C111.189 46.1676 109.102 45.923 110.146 43.9663L111.557 41.5814L112.416 40.1139C113.705 37.9125 115.485 38.7686 114.38 40.6642L113.03 42.9267Z" fill="#766458"/>
<path d="M17.8437 40.8469H0.107422V42.0699H17.8437V40.8469Z" fill="#766458"/>
<path d="M157.156 40.8469H139.42V42.0699H157.156V40.8469Z" fill="#766458"/>
<path d="M38.0349 0H42.7605L42.024 27.456H33.1252L31.8978 16.1434L30.6704 27.456H21.7102L21.0351 0H25.6993L26.0675 22.7475H26.5585L29.5657 0H34.2299L37.2371 22.7475H37.728L38.0349 0Z" fill="#81B3D3"/>
<path d="M57.5508 22.7475V27.5171H44.7243V0H57.5508V4.70849H49.3885V11.3126H55.8938V16.0211H49.3885V22.6864H57.5508V22.7475Z" fill="#81B3D3"/>
<path d="M70.6842 22.7475V27.5171H59.4533V0H64.1175V22.7475H70.6842Z" fill="#81B3D3"/>
<path d="M80.6263 17.3664L85.3519 16.2657V24.582C85.3519 26.1719 84.0017 27.456 82.4675 27.456H75.4098C73.8141 27.456 72.5253 26.1107 72.5253 24.582V2.87401C72.5253 1.28413 73.8141 0 75.4098 0H82.4675C84.0017 0 85.3519 1.28413 85.3519 2.87401V8.43859L80.6263 9.53928V4.64734H77.2509V22.6864H80.6263V17.3664Z" fill="#81B3D3"/>
<path d="M98.117 0C99.6513 0 101.001 1.28413 101.001 2.87401V24.5208C101.001 26.1107 99.6513 27.3948 98.117 27.3948H91.0594C89.4637 27.3948 88.1749 26.0496 88.1749 24.5208V2.87401C88.1749 1.28413 89.4637 0 91.0594 0H98.117ZM96.2759 4.70849H92.9005V22.7475H96.2759V4.70849Z" fill="#81B3D3"/>
<path d="M116.344 0H121.009V27.456H116.344V13.942L114.442 20.913H109.839L107.998 13.942V27.456H103.334V0H107.998L112.171 13.2694L116.344 0Z" fill="#81B3D3"/>
<path d="M136.167 22.7475V27.5171H123.341V0H136.167V4.70849H128.005V11.3126H134.51V16.0211H128.005V22.6864H136.167V22.7475Z" fill="#81B3D3"/>
</svg>

<svg width="158" height="52" viewBox="0 0 158 52" fill="none" xmlns="http://www.w3.org/2000/svg">
  <path d="M39.38 42.8l-.12.13a3.83 3.83 0 01-2.76 1.34l1.72-3c1.1-1.89.06-3.72-1.66-3.72-1.41 0-2.51.55-3.56 2.38l-.92 1.59-.73 1.28-.13.13c-1.35 1.53-2.64 2.75-3.43 2.75-.43 0-.62-.3-.19-.98l3.93-6.85H33l.55-.85h-1.53l1.72-3H31.9l-1.72 3h-1.66l-.55.85h1.66l-3.69 6.36c-.8 1.35-.24 2.63 1.23 2.63 1.05 0 2.27-.8 3.38-1.9 0 2.33 3.25 2.82 5.21.31h.43c1.1 0 2.83-.67 3.75-1.77 0-.3-.3-.55-.55-.68zm-3.92.13h-.06a1.1 1.1 0 00-.92 1.7v.07c-.86 1.47-2.95 1.22-1.9-.73l1.4-2.39.86-1.47c1.3-2.2 3.07-1.34 1.97.55l-1.35 2.27zM64.85 42.8l-.12.13c-1.35 1.53-3 2.75-4.3 2.75-1.1 0-1.77-.74-.98-2.2l.19-.3c1.16.48 3.43.24 4.78-2.15l.25-.43c.98-1.7.06-2.93-1.47-2.93-1.48 0-2.64.8-3.44 2.14l-1.78 3.06-.12.12c-1.35 1.53-2.64 2.75-3.44 2.75-.43 0-.61-.3-.18-.98l2.64-4.65c.8-1.4.06-2.38-.99-2.38-.8 0-1.65.43-2.57 1.4l2.94-5.07h-1.84l-5.1 8.74-.12.13c-1.35 1.53-2.63 2.75-3.43 2.75-.43 0-.62-.3-.19-.98l3.93-6.85h1.47l.56-.86H50l1.72-3h-1.84l-1.72 3H46.5l-.55.86h1.66l-3.68 6.36c-.8 1.35-.25 2.63 1.22 2.63.74 0 1.54-.37 2.34-.98l-.5.8h1.85l2.76-4.83c2.82-3.55 4.05-3.06 3.31-1.72l-2.4 4.16c-.79 1.35-.24 2.63 1.24 2.63 1.1 0 2.33-.85 3.43-1.96.06 1.17 1.05 1.96 2.52 1.96 2.09 0 4.17-1.59 5.64-3.36.07-.37-.24-.61-.49-.74zm-3.5-2.56c1.05-1.84 2.95-1.53 1.85.36l-.25.43c-.86 1.47-2.09 1.47-2.76 1.22l1.17-2.01zM131.81 42.8l-.12.13c-.68.8-1.48 1.46-2.21 2.01.61-1.77.43-4.4 1.6-6.78l-1.36-.74c-.73 1.04-2.39 3.43-4.1 5.38l-.13.13c-1.35 1.53-2.64 2.75-3.44 2.75-.43 0-.61-.3-.18-.98l3.92-6.85h-1.84l-3.25 5.69c-1.41 1.28-2.45 1.95-2.82 1.83-.43-.18 0-.85.24-1.28l3.56-6.24h-1.84l-2.88 4.95-.13.13a3.83 3.83 0 01-2.76 1.34l1.72-3c1.1-1.89.06-3.72-1.66-3.72-1.4 0-2.51.55-3.55 2.38l-.92 1.59-.74 1.28-.12.13c-1.36 1.53-3.01 2.75-4.3 2.75-1.1 0-1.78-.74-.98-2.2l.18-.3c1.17.48 3.44.24 4.79-2.15l.24-.43c.99-1.7.07-2.93-1.47-2.93-1.47 0-2.64.8-3.44 2.14l-1.77 3.06-.13.12c-1.53 1.77-2.82 2.87-4.3 3.48l4.12-7.03h-1.1c0-.73-.8-1.77-1.9-1.77-1 0-2.4.8-3.14 2.14l-1.78 3.06-.12.12c-1.35 1.53-2.64 2.75-3.44 2.75-.43 0-.61-.3-.18-.98l1.84-3.18c.61-1.1.3-1.77-.25-2.5l-1.04-1.23c-.25-.3-.25-.73.12-1.04l-.98-1.04c-1.04.92-1.1 1.96-.49 2.82l.18.18c-.8 1.16-1.9 2.69-3.13 4.1l-.12.12a3.83 3.83 0 01-2.76 1.34l1.72-3c1.1-1.89.06-3.72-1.66-3.72-1.41 0-2.52.55-3.56 2.38l-.92 1.6-.74 1.28-.12.12c-1.53 1.77-2.82 2.87-4.3 3.48L78 39.44h-1.1c0-.73-.8-1.77-1.91-1.77-.98 0-2.4.8-3.13 2.14l-2.58 4.46c-.8 1.35-.24 2.63 1.23 2.63.5 0 1.1-.24 1.78-.61l-.5.86c-2.45.73-4.04 1.77-4.04 3.11 0 1.78 2.7 2.14 4.05-.12l1.41-2.38A11.4 11.4 0 0077.62 45c0 2.32 3.25 2.8 5.22.3h.43c1.1 0 2.82-.67 3.74-1.77.86-1.04 1.6-1.96 3.07-3.92l.24.31c.25.3.31.67.13 1.04l-1.97 3.36c-.8 1.35-.24 2.63 1.23 2.63.92 0 1.96-.6 2.94-1.47 0 .86.56 1.47 1.6 1.47.5 0 1.1-.24 1.78-.6l-.43.72c-2.45.74-4.05 1.78-4.05 3.12 0 1.78 2.7 2.14 4.05-.12l1.41-2.38a11.79 11.79 0 004.48-2.82c.06 1.17.98 1.96 2.52 1.96 1.47 0 3-.86 4.23-1.96-.06 2.39 3.26 2.88 5.22.37h.43a4.6 4.6 0 002.03-.55c-.5 1.28-.07 2.14.98 2.14.98 0 2.14-.92 3-1.77-.18.98.43 1.77 1.6 1.77 1.53 0 3.25-1.59 4.79-3.36 1.04-1.23 1.96-2.51 2.64-3.37-.74 1.9-.31 5.32-2.1 5.32-.6 0-.85-.67-.85-.67l-1.17.61s.31 1.47 2.03 1.47c.18 0 .3 0 .49-.06h.06c1.9-.25 3.74-1.71 5.1-3.3a.94.94 0 00-.68-.68zm-26.33-2.56c1.05-1.84 2.95-1.53 1.84.36l-.24.43c-.86 1.47-2.09 1.47-2.77 1.22l1.17-2.01zm-35.1 9.54c-.37.67-.98.6-.98.06 0-.5.42-1.04 1.84-1.6l-.86 1.54zm.86-4.1c-.43 0-.62-.3-.19-.98l2.58-4.46c.98-1.72 2.95-1.29 2.03.36l-1.42 2.45c-1.1 1.77-2.27 2.63-3 2.63zm11.29-2.75h-.06a1.1 1.1 0 00-.92 1.7v.07c-.86 1.47-2.95 1.22-1.9-.73l1.4-2.39.87-1.47c1.28-2.2 3.06-1.34 1.96.55l-1.35 2.27zm11.54 6.85c-.37.67-.99.6-.99.06 0-.5.43-1.04 1.85-1.6l-.86 1.54zm.86-4.1c-.43 0-.62-.3-.19-.98l2.58-4.46c.98-1.72 2.95-1.29 2.02.36l-1.4 2.45c-1.11 1.77-2.28 2.63-3.01 2.63zm18.1-2.75h-.06a1.1 1.1 0 00-.92 1.7v.07c-.86 1.47-2.95 1.22-1.9-.73l1.4-2.39.87-1.47c1.28-2.2 3.06-1.34 1.96.55l-1.35 2.27zM17.84 40.85H.11v1.22h17.73v-1.22zM157.16 40.85h-17.74v1.22h17.74v-1.22z" fill="#766458"/>
  <path d="M38.03 0h4.73l-.74 27.46h-8.9L31.9 16.14l-1.23 11.32h-8.96L21.04 0h4.66l.37 22.75h.49l3-22.75h4.67l3 22.75h.5L38.03 0zM57.55 22.75v4.77H44.72V0h12.83v4.7H49.4v6.61h6.5v4.71h-6.5v6.67h8.16v.06zM70.68 22.75v4.77H59.45V0h4.67v22.75h6.56zM80.63 17.37l4.72-1.1v8.31a2.92 2.92 0 01-2.88 2.88H75.4a2.92 2.92 0 01-2.88-2.88V2.88A2.88 2.88 0 0175.4 0h7.06a2.92 2.92 0 012.88 2.87v5.57l-4.72 1.1v-4.9h-3.38V22.7h3.38v-5.32zM98.12 0A2.92 2.92 0 01101 2.87v21.65a2.92 2.92 0 01-2.88 2.87h-7.06a2.92 2.92 0 01-2.89-2.87V2.87A2.88 2.88 0 0191.06 0h7.06zm-1.84 4.7H92.9v18.05h3.38V4.7zM116.34 0h4.67v27.46h-4.67V13.94l-1.9 6.97h-4.6L108 13.94v13.52h-4.67V0H108l4.17 13.27L116.34 0zM136.17 22.75v4.77h-12.83V0h12.83v4.7H128v6.61h6.5v4.71h-6.5v6.67h8.16v.06z" fill="#81B3D3"/>
</svg>
